Assets/SVGs/website.svg

<?xml version="1.0" encoding="utf-8"?>
<!-- Generator: Adobe Illustrator 22.0.0, SVG Export Plug-In . SVG Version: 6.00 Build 0)  -->
<svg version="1.1" id="Layer_1" xmlns="http://www.w3.org/2000/svg" xmlns:xlink="http://www.w3.org/1999/xlink" x="0px" y="0px"
	 viewBox="0 0 25 20" style="enable-background:new 0 0 25 20;" xml:space="preserve">
<style type="text/css">
	.st0{fill:#2399A6;}
</style>
<title>website</title>
<path class="st0" d="M25,20V0H0v20H25z M16,18H2v-6h14V18z M16,10H2V4h14V10z M23,18h-5V4h5V18z"/>
</svg>

<svg xmlns="http://www.w3.org/2000/svg" width="25" height="20" viewBox="0 0 25 20"><title>website</title><path d="M25,20V0H0V20Zm-9-2H2V12H16Zm0-8H2V4H16Zm7,8H18V4h5Z"/></svg>
